img/icons/pinterest.svg

<?xml version="1.0" encoding="UTF-8" standalone="no"?>
<svg width="113px" height="113px" viewBox="0 0 113 113" version="1.1" xmlns="http://www.w3.org/2000/svg" xmlns:xlink="http://www.w3.org/1999/xlink" xmlns:sketch="http://www.bohemiancoding.com/sketch/ns">
    <!-- Generator: Sketch 3.3 (11970) - http://www.bohemiancoding.com/sketch -->
    <title>pinterest</title>
    <desc>Created with Sketch.</desc>
    <defs></defs>
    <g id="Page-1" stroke="none" stroke-width="1" fill="none" fill-rule="evenodd" sketch:type="MSPage">
        <g id="pinterest" sketch:type="MSLayerGroup" transform="translate(0.000000, 0.046120)" fill="#906290">
            <path d="M63.1733971,70.4748859 C59.1433801,70.4748859 55.3489891,68.2973767 54.0530461,65.8233037 C54.0530461,65.8233037 51.883662,74.4236525 51.42866,76.0811595 C49.8077157,81.9555593 45.0505081,87.8258966 44.6848816,88.3012111 C44.428943,88.6343375 43.8561281,88.5327746 43.7992528,88.0899602 C43.6936274,87.3424571 42.4789347,79.9405508 43.9089408,73.8995878 C44.6280063,70.86895 48.7148986,53.5585644 48.7148986,53.5585644 C48.7148986,53.5585644 47.5205185,51.1779294 47.5205185,47.6516645 C47.5205185,42.1144536 50.7299071,37.9909987 54.7233614,37.9909987 C58.1196258,37.9909987 59.7527577,40.5341344 59.7527577,43.5891473 C59.7527577,47.0016617 57.5833735,52.1123083 56.4621188,56.8410783 C55.5236773,60.8020325 58.4446272,64.0317337 62.3527687,64.0317337 C69.425611,64.0317337 74.1909436,54.9438828 74.1909436,44.1782123 C74.1909436,35.9963028 68.6821704,29.8700269 58.655878,29.8700269 C47.3336427,29.8700269 40.2729879,38.3241251 40.2729879,47.7572899 C40.2729879,51.0113662 41.2358045,53.3026258 42.7389358,55.0738833 C43.4295638,55.8904493 43.5230016,56.2235757 43.2751881,57.1579546 C43.0923748,57.8404575 42.6861231,59.4979645 42.5114349,60.1520298 C42.2676838,61.1026588 41.4958056,61.4357852 40.642677,61.0864087 C35.426405,58.9617122 32.9970197,53.2457506 32.9970197,46.8188485 C32.9970197,36.2197412 41.9426825,23.5 59.6836949,23.5 C73.9390676,23.5 83.3194197,33.8147311 83.3194197,44.8932153 C83.3194197,59.5304646 75.1740728,70.4748859 63.1733971,70.4748859 L63.1733971,70.4748859 Z M56.6969697,0 C25.7709697,0 0.696969697,25.074 0.696969697,56 C0.696969697,86.933 25.7709697,112 56.6969697,112 C87.6229697,112 112.69697,86.933 112.69697,56 C112.69697,25.074 87.6229697,0 56.6969697,0 L56.6969697,0 Z" id="Fill-594" sketch:type="MSShapeGroup"></path>
        </g>
    </g>
</svg>

<svg width="113" height="113" viewBox="0 0 113 113" xmlns="http://www.w3.org/2000/svg"><title>pinterest</title><path d="M63.173 70.52c-4.03 0-7.824-2.177-9.12-4.65 0 0-2.17 8.6-2.624 10.257-1.622 5.875-6.38 11.745-6.745 12.22-.256.333-.83.232-.886-.21-.106-.748-1.32-8.15.11-14.19.718-3.032 4.805-20.342 4.805-20.342s-1.194-2.38-1.194-5.907c0-5.537 3.21-9.66 7.203-9.66 3.397 0 5.03 2.542 5.03 5.597 0 3.413-2.17 8.523-3.29 13.252-.94 3.96 1.982 7.19 5.89 7.19 7.073 0 11.838-9.087 11.838-19.853 0-8.182-5.508-14.308-15.534-14.308-11.322 0-18.383 8.454-18.383 17.887 0 3.254.963 5.546 2.466 7.317.69.817.783 1.15.535 2.084-.183.683-.59 2.34-.764 2.994-.242.95-1.014 1.284-1.867.935-5.217-2.125-7.646-7.84-7.646-14.268 0-10.6 8.946-23.32 26.687-23.32 14.255 0 23.635 10.316 23.635 21.394 0 14.637-8.146 25.58-20.147 25.58zM56.697.047c-30.926 0-56 25.074-56 56 0 30.933 25.074 56 56 56s56-25.067 56-56c0-30.926-25.074-56-56-56z" fill="#906290" fill-rule="evenodd"/></svg>
